src/lib/packages/icons/src/assets/filled/heart-plus.svg

<svg width="24" height="24" viewBox="0 0 24 24" fill="none" xmlns="http://www.w3.org/2000/svg">
<path d="M12.615 20.315C12.684 20.405 12.6731 20.509 12.6661 20.548C12.6511 20.636 12.615 20.695 12.522 20.743C12.195 20.915 12 21 12 21C12 21 4.33999 17.52 3.16899 11.47C2.44899 7.75 4.01909 4.02002 8.01909 4.00002C10.9991 3.99002 11.9991 6.99002 11.9991 6.99002C11.9991 6.99002 12.9991 3.99002 15.979 4.00002C19.989 4.02002 21.549 7.75 20.829 11.47C20.769 11.77 20.6991 12.0601 20.6091 12.3401C20.5481 12.4951 20.4421 12.545 20.3221 12.545C20.2421 12.545 20.1601 12.506 20.1091 12.47C19.2291 11.86 18.1591 11.5 16.9991 11.5C13.9691 11.5 11.4991 13.97 11.4991 17C11.5001 18.247 11.914 19.395 12.615 20.315ZM21 17C21 19.21 19.21 21 17 21C14.79 21 13 19.21 13 17C13 14.79 14.79 13 17 13C19.21 13 21 14.79 21 17ZM18.75 17C18.75 16.72 18.53 16.5 18.25 16.5H17.5V15.75C17.5 15.47 17.28 15.25 17 15.25C16.72 15.25 16.5 15.47 16.5 15.75V16.5H15.75C15.47 16.5 15.25 16.72 15.25 17C15.25 17.28 15.47 17.5 15.75 17.5H16.5V18.25C16.5 18.53 16.72 18.75 17 18.75C17.28 18.75 17.5 18.53 17.5 18.25V17.5H18.25C18.53 17.5 18.75 17.28 18.75 17Z" fill="currentColor"/>
</svg>

<svg xmlns="http://www.w3.org/2000/svg" width="24" height="24" fill="none"><path fill="currentColor" d="M12.615 20.315a.3.3 0 0 1 .051.233.242.242 0 0 1-.144.195C12.195 20.915 12 21 12 21s-7.66-3.48-8.831-9.53c-.72-3.72.85-7.45 4.85-7.47C11 3.99 12 6.99 12 6.99s1-3 3.98-2.99c4.01.02 5.57 3.75 4.85 7.47-.06.3-.13.59-.22.87-.06.155-.167.205-.287.205a.397.397 0 0 1-.213-.075c-.88-.61-1.95-.97-3.11-.97a5.51 5.51 0 0 0-5.5 5.5 5.454 5.454 0 0 0 1.116 3.315ZM21 17c0 2.21-1.79 4-4 4s-4-1.79-4-4 1.79-4 4-4 4 1.79 4 4Zm-2.25 0c0-.28-.22-.5-.5-.5h-.75v-.75c0-.28-.22-.5-.5-.5s-.5.22-.5.5v.75h-.75c-.28 0-.5.22-.5.5s.22.5.5.5h.75v.75c0 .28.22.5.5.5s.5-.22.5-.5v-.75h.75c.28 0 .5-.22.5-.5Z"/></svg>
